components/AppDevelopmentCommon/Svg/svgs/titledJavaScript.svg

<svg width="96" height="146" viewBox="0 0 96 146" fill="none" xmlns="http://www.w3.org/2000/svg">
<path d="M2 0H94V92H2V0Z" fill="#A3A3A3"/>
<path d="M26.1918 76.8818L33.2319 72.621C34.5904 75.0292 35.8259 77.0668 38.7897 77.0668C41.6305 77.0668 43.422 75.9557 43.422 71.6331V42.2369H52.0675V71.7553C52.0675 80.7098 46.8185 84.7859 39.1602 84.7859C32.244 84.7859 28.2294 81.204 26.1914 76.881L26.1918 76.8818ZM56.7634 75.9553L63.8029 71.8796C65.6562 74.9059 68.0647 77.129 72.3255 77.129C75.9081 77.129 78.1922 75.3379 78.1922 72.8675C78.1922 69.9034 75.8455 68.8533 71.8931 67.1247L69.7322 66.1975C63.4945 63.5428 59.3571 60.2078 59.3571 53.1677C59.3571 46.6831 64.2974 41.7424 72.0171 41.7424C77.5134 41.7424 81.4658 43.6572 84.3063 48.6593L77.5745 52.9826C76.0921 50.3272 74.4871 49.2774 72.0168 49.2774C69.4846 49.2774 67.8789 50.8831 67.8789 52.9826C67.8789 55.5762 69.4846 56.6267 73.1898 58.2324L75.351 59.1585C82.7002 62.3084 86.8377 65.5194 86.8377 72.7443C86.8377 80.5262 80.724 84.7869 72.5105 84.7869C64.4825 84.7869 59.2949 80.9582 56.7631 75.9557" fill="#6A6A6A"/>
<path d="M7.704 123.454V132.724C7.704 133.756 7.386 134.584 6.75 135.208C6.114 135.82 5.274 136.126 4.23 136.126C3.174 136.126 2.328 135.814 1.692 135.19C1.056 134.554 0.738 133.69 0.738 132.598H2.376C2.388 133.21 2.544 133.708 2.844 134.092C3.156 134.476 3.618 134.668 4.23 134.668C4.842 134.668 5.298 134.488 5.598 134.128C5.898 133.756 6.048 133.288 6.048 132.724V123.454H7.704ZM10.3189 131.032C10.3189 130.024 10.5229 129.142 10.9309 128.386C11.3389 127.618 11.8969 127.024 12.6049 126.604C13.3249 126.184 14.1229 125.974 14.9989 125.974C15.8629 125.974 16.6129 126.16 17.2489 126.532C17.8849 126.904 18.3589 127.372 18.6709 127.936V126.136H20.3269V136H18.6709V134.164C18.3469 134.74 17.8609 135.22 17.2129 135.604C16.5769 135.976 15.8329 136.162 14.9809 136.162C14.1049 136.162 13.3129 135.946 12.6049 135.514C11.8969 135.082 11.3389 134.476 10.9309 133.696C10.5229 132.916 10.3189 132.028 10.3189 131.032ZM18.6709 131.05C18.6709 130.306 18.5209 129.658 18.2209 129.106C17.9209 128.554 17.5129 128.134 16.9969 127.846C16.4929 127.546 15.9349 127.396 15.3229 127.396C14.7109 127.396 14.1529 127.54 13.6489 127.828C13.1449 128.116 12.7429 128.536 12.4429 129.088C12.1429 129.64 11.9929 130.288 11.9929 131.032C11.9929 131.788 12.1429 132.448 12.4429 133.012C12.7429 133.564 13.1449 133.99 13.6489 134.29C14.1529 134.578 14.7109 134.722 15.3229 134.722C15.9349 134.722 16.4929 134.578 16.9969 134.29C17.5129 133.99 17.9209 133.564 18.2209 133.012C18.5209 132.448 18.6709 131.794 18.6709 131.05ZM26.767 134.488L29.827 126.136H31.573L27.703 136H25.795L21.925 126.136H23.689L26.767 134.488ZM32.5728 131.032C32.5728 130.024 32.7768 129.142 33.1848 128.386C33.5928 127.618 34.1508 127.024 34.8588 126.604C35.5788 126.184 36.3768 125.974 37.2528 125.974C38.1168 125.974 38.8668 126.16 39.5028 126.532C40.1388 126.904 40.6128 127.372 40.9248 127.936V126.136H42.5808V136H40.9248V134.164C40.6008 134.74 40.1148 135.22 39.4668 135.604C38.8308 135.976 38.0868 136.162 37.2348 136.162C36.3588 136.162 35.5668 135.946 34.8588 135.514C34.1508 135.082 33.5928 134.476 33.1848 133.696C32.7768 132.916 32.5728 132.028 32.5728 131.032ZM40.9248 131.05C40.9248 130.306 40.7748 129.658 40.4748 129.106C40.1748 128.554 39.7668 128.134 39.2508 127.846C38.7468 127.546 38.1888 127.396 37.5768 127.396C36.9648 127.396 36.4068 127.54 35.9028 127.828C35.3988 128.116 34.9968 128.536 34.6968 129.088C34.3968 129.64 34.2468 130.288 34.2468 131.032C34.2468 131.788 34.3968 132.448 34.6968 133.012C34.9968 133.564 35.3988 133.99 35.9028 134.29C36.4068 134.578 36.9648 134.722 37.5768 134.722C38.1888 134.722 38.7468 134.578 39.2508 134.29C39.7668 133.99 40.1748 133.564 40.4748 133.012C40.7748 132.448 40.9248 131.794 40.9248 131.05ZM49.3269 136.126C48.4989 136.126 47.7549 135.982 47.0949 135.694C46.4469 135.394 45.9369 134.986 45.5649 134.47C45.1929 133.942 45.0009 133.336 44.9889 132.652H46.7349C46.7949 133.24 47.0349 133.738 47.4549 134.146C47.8869 134.542 48.5109 134.74 49.3269 134.74C50.1069 134.74 50.7189 134.548 51.1629 134.164C51.6189 133.768 51.8469 133.264 51.8469 132.652C51.8469 132.172 51.7149 131.782 51.4509 131.482C51.1869 131.182 50.8569 130.954 50.4609 130.798C50.0649 130.642 49.5309 130.474 48.8589 130.294C48.0309 130.078 47.3649 129.862 46.8609 129.646C46.3689 129.43 45.9429 129.094 45.5829 128.638C45.2349 128.17 45.0609 127.546 45.0609 126.766C45.0609 126.082 45.2349 125.476 45.5829 124.948C45.9309 124.42 46.4169 124.012 47.0409 123.724C47.6769 123.436 48.4029 123.292 49.2189 123.292C50.3949 123.292 51.3549 123.586 52.0989 124.174C52.8549 124.762 53.2809 125.542 53.3769 126.514H51.5769C51.5169 126.034 51.2649 125.614 50.8209 125.254C50.3769 124.882 49.7889 124.696 49.0569 124.696C48.3729 124.696 47.8149 124.876 47.3829 125.236C46.9509 125.584 46.7349 126.076 46.7349 126.712C46.7349 127.168 46.8609 127.54 47.1129 127.828C47.3769 128.116 47.6949 128.338 48.0669 128.494C48.4509 128.638 48.9849 128.806 49.6689 128.998C50.4969 129.226 51.1629 129.454 51.6669 129.682C52.1709 129.898 52.6029 130.24 52.9629 130.708C53.3229 131.164 53.5029 131.788 53.5029 132.58C53.5029 133.192 53.3409 133.768 53.0169 134.308C52.6929 134.848 52.2129 135.286 51.5769 135.622C50.9409 135.958 50.1909 136.126 49.3269 136.126ZM55.3013 131.05C55.3013 130.03 55.5053 129.142 55.9133 128.386C56.3213 127.618 56.8853 127.024 57.6053 126.604C58.3373 126.184 59.1713 125.974 60.1073 125.974C61.3193 125.974 62.3153 126.268 63.0953 126.856C63.8873 127.444 64.4093 128.26 64.6613 129.304H62.8973C62.7293 128.704 62.3993 128.23 61.9073 127.882C61.4273 127.534 60.8273 127.36 60.1073 127.36C59.1713 127.36 58.4153 127.684 57.8393 128.332C57.2633 128.968 56.9753 129.874 56.9753 131.05C56.9753 132.238 57.2633 133.156 57.8393 133.804C58.4153 134.452 59.1713 134.776 60.1073 134.776C60.8273 134.776 61.4273 134.608 61.9073 134.272C62.3873 133.936 62.7173 133.456 62.8973 132.832H64.6613C64.3973 133.84 63.8693 134.65 63.0773 135.262C62.2853 135.862 61.2953 136.162 60.1073 136.162C59.1713 136.162 58.3373 135.952 57.6053 135.532C56.8853 135.112 56.3213 134.518 55.9133 133.75C55.5053 132.982 55.3013 132.082 55.3013 131.05ZM68.4849 127.738C68.7729 127.174 69.1809 126.736 69.7089 126.424C70.2489 126.112 70.9029 125.956 71.6709 125.956V127.648H71.2389C69.4029 127.648 68.4849 128.644 68.4849 130.636V136H66.8469V126.136H68.4849V127.738ZM74.4078 124.534C74.0958 124.534 73.8318 124.426 73.6158 124.21C73.3998 123.994 73.2918 123.73 73.2918 123.418C73.2918 123.106 73.3998 122.842 73.6158 122.626C73.8318 122.41 74.0958 122.302 74.4078 122.302C74.7078 122.302 74.9598 122.41 75.1638 122.626C75.3798 122.842 75.4878 123.106 75.4878 123.418C75.4878 123.73 75.3798 123.994 75.1638 124.21C74.9598 124.426 74.7078 124.534 74.4078 124.534ZM75.1998 126.136V136H73.5618V126.136H75.1998ZM79.6295 127.954C79.9535 127.39 80.4335 126.922 81.0695 126.55C81.7175 126.166 82.4675 125.974 83.3195 125.974C84.1955 125.974 84.9875 126.184 85.6955 126.604C86.4155 127.024 86.9795 127.618 87.3875 128.386C87.7955 129.142 87.9995 130.024 87.9995 131.032C87.9995 132.028 87.7955 132.916 87.3875 133.696C86.9795 134.476 86.4155 135.082 85.6955 135.514C84.9875 135.946 84.1955 136.162 83.3195 136.162C82.4795 136.162 81.7355 135.976 81.0875 135.604C80.4515 135.22 79.9655 134.746 79.6295 134.182V140.68H77.9915V126.136H79.6295V127.954ZM86.3255 131.032C86.3255 130.288 86.1755 129.64 85.8755 129.088C85.5755 128.536 85.1675 128.116 84.6515 127.828C84.1475 127.54 83.5895 127.396 82.9775 127.396C82.3775 127.396 81.8195 127.546 81.3035 127.846C80.7995 128.134 80.3915 128.56 80.0795 129.124C79.7795 129.676 79.6295 130.318 79.6295 131.05C79.6295 131.794 79.7795 132.448 80.0795 133.012C80.3915 133.564 80.7995 133.99 81.3035 134.29C81.8195 134.578 82.3775 134.722 82.9775 134.722C83.5895 134.722 84.1475 134.578 84.6515 134.29C85.1675 133.99 85.5755 133.564 85.8755 133.012C86.1755 132.448 86.3255 131.788 86.3255 131.032ZM92.1535 127.486V133.3C92.1535 133.78 92.2555 134.122 92.4595 134.326C92.6635 134.518 93.0175 134.614 93.5215 134.614H94.7275V136H93.2515C92.3395 136 91.6555 135.79 91.1995 135.37C90.7435 134.95 90.5155 134.26 90.5155 133.3V127.486H89.2375V126.136H90.5155V123.652H92.1535V126.136H94.7275V127.486H92.1535Z" fill="#A0A0A0"/>
</svg>

<svg xmlns="http://www.w3.org/2000/svg" width="96" height="146" fill="none">
  <path fill="#A3A3A3" d="M2 0h92v92H2V0Z" />
  <path fill="#6A6A6A" d="m26.192 76.882 7.04-4.261c1.358 2.408 2.594 4.446 5.558 4.446 2.84 0 4.632-1.111 4.632-5.434V42.237h8.646v29.518c0 8.955-5.25 13.03-12.908 13.03-6.916 0-10.93-3.581-12.969-7.904Zm30.571-.927 7.04-4.075c1.853 3.026 4.262 5.249 8.523 5.249 3.582 0 5.866-1.791 5.866-4.261 0-2.965-2.346-4.015-6.299-5.743l-2.16-.927c-6.239-2.655-10.376-5.99-10.376-13.03 0-6.485 4.94-11.426 12.66-11.426 5.496 0 9.449 1.915 12.29 6.917l-6.733 4.324c-1.482-2.656-3.087-3.706-5.557-3.706-2.532 0-4.138 1.606-4.138 3.706 0 2.593 1.606 3.644 5.31 5.25l2.162.925c7.35 3.15 11.487 6.361 11.487 13.586 0 7.782-6.114 12.043-14.328 12.043-8.028 0-13.215-3.829-15.747-8.831" />
  <path fill="#A0A0A0" d="M7.704 123.454v9.27c0 1.032-.318 1.86-.954 2.484-.636.612-1.476.918-2.52.918-1.056 0-1.902-.312-2.538-.936-.636-.636-.954-1.5-.954-2.592h1.638c.012.612.168 1.11.468 1.494.312.384.774.576 1.386.576.612 0 1.068-.18 1.368-.54.3-.372.45-.84.45-1.404v-9.27h1.656Zm2.615 7.578c0-1.008.204-1.89.612-2.646a4.446 4.446 0 0 1 1.674-1.782c.72-.42 1.518-.63 2.394-.63.864 0 1.614.186 2.25.558.636.372 1.11.84 1.422 1.404v-1.8h1.656V136H18.67v-1.836c-.324.576-.81 1.056-1.458 1.44-.636.372-1.38.558-2.232.558-.876 0-1.668-.216-2.376-.648-.708-.432-1.266-1.038-1.674-1.818-.408-.78-.612-1.668-.612-2.664Zm8.352.018c0-.744-.15-1.392-.45-1.944a3.098 3.098 0 0 0-1.224-1.26 3.211 3.211 0 0 0-1.674-.45c-.612 0-1.17.144-1.674.432a3.134 3.134 0 0 0-1.206 1.26c-.3.552-.45 1.2-.45 1.944 0 .756.15 1.416.45 1.98.3.552.702.978 1.206 1.278a3.314 3.314 0 0 0 1.674.432c.612 0 1.17-.144 1.674-.432.516-.3.924-.726 1.224-1.278.3-.564.45-1.218.45-1.962Zm8.096 3.438 3.06-8.352h1.746L27.703 136h-1.908l-3.87-9.864h1.764l3.078 8.352Zm5.806-3.456c0-1.008.204-1.89.612-2.646a4.446 4.446 0 0 1 1.674-1.782c.72-.42 1.518-.63 2.394-.63.864 0 1.614.186 2.25.558.636.372 1.11.84 1.422 1.404v-1.8h1.656V136h-1.656v-1.836c-.324.576-.81 1.056-1.458 1.44-.636.372-1.38.558-2.232.558-.876 0-1.668-.216-2.376-.648-.708-.432-1.266-1.038-1.674-1.818-.408-.78-.612-1.668-.612-2.664Zm8.352.018c0-.744-.15-1.392-.45-1.944a3.098 3.098 0 0 0-1.224-1.26 3.211 3.211 0 0 0-1.674-.45c-.612 0-1.17.144-1.674.432a3.134 3.134 0 0 0-1.206 1.26c-.3.552-.45 1.2-.45 1.944 0 .756.15 1.416.45 1.98.3.552.702.978 1.206 1.278a3.314 3.314 0 0 0 1.674.432c.612 0 1.17-.144 1.674-.432.516-.3.924-.726 1.224-1.278.3-.564.45-1.218.45-1.962Zm8.402 5.076c-.828 0-1.572-.144-2.232-.432-.648-.3-1.158-.708-1.53-1.224a3.178 3.178 0 0 1-.576-1.818h1.746c.06.588.3 1.086.72 1.494.432.396 1.056.594 1.872.594.78 0 1.392-.192 1.836-.576.456-.396.684-.9.684-1.512 0-.48-.132-.87-.396-1.17a2.53 2.53 0 0 0-.99-.684c-.396-.156-.93-.324-1.602-.504-.828-.216-1.494-.432-1.998-.648a3.318 3.318 0 0 1-1.278-1.008c-.348-.468-.522-1.092-.522-1.872 0-.684.174-1.29.522-1.818.348-.528.834-.936 1.458-1.224.636-.288 1.362-.432 2.178-.432 1.176 0 2.136.294 2.88.882.756.588 1.182 1.368 1.278 2.34h-1.8c-.06-.48-.312-.9-.756-1.26-.444-.372-1.032-.558-1.764-.558-.684 0-1.242.18-1.674.54-.432.348-.648.84-.648 1.476 0 .456.126.828.378 1.116.264.288.582.51.954.666.384.144.918.312 1.602.504.828.228 1.494.456 1.998.684.504.216.936.558 1.296 1.026.36.456.54 1.08.54 1.872 0 .612-.162 1.188-.486 1.728-.324.54-.804.978-1.44 1.314-.636.336-1.386.504-2.25.504Zm5.974-5.076c0-1.02.204-1.908.612-2.664a4.407 4.407 0 0 1 1.692-1.782c.732-.42 1.566-.63 2.502-.63 1.212 0 2.208.294 2.988.882.792.588 1.314 1.404 1.566 2.448h-1.764a2.518 2.518 0 0 0-.99-1.422c-.48-.348-1.08-.522-1.8-.522-.936 0-1.692.324-2.268.972-.576.636-.864 1.542-.864 2.718 0 1.188.288 2.106.864 2.754.576.648 1.332.972 2.268.972.72 0 1.32-.168 1.8-.504.48-.336.81-.816.99-1.44h1.764c-.264 1.008-.792 1.818-1.584 2.43-.792.6-1.782.9-2.97.9-.936 0-1.77-.21-2.502-.63a4.407 4.407 0 0 1-1.692-1.782c-.408-.768-.612-1.668-.612-2.7Zm13.184-3.312a3.16 3.16 0 0 1 1.224-1.314c.54-.312 1.194-.468 1.962-.468v1.692h-.432c-1.836 0-2.754.996-2.754 2.988V136h-1.638v-9.864h1.638v1.602Zm5.923-3.204c-.312 0-.576-.108-.792-.324a1.077 1.077 0 0 1-.324-.792c0-.312.108-.576.324-.792.216-.216.48-.324.792-.324.3 0 .552.108.756.324.216.216.324.48.324.792 0 .312-.108.576-.324.792a.998.998 0 0 1-.756.324Zm.792 1.602V136h-1.638v-9.864H75.2Zm4.43 1.818c.324-.564.803-1.032 1.44-1.404.648-.384 1.398-.576 2.25-.576.876 0 1.668.21 2.376.63a4.407 4.407 0 0 1 1.692 1.782c.407.756.611 1.638.611 2.646 0 .996-.203 1.884-.611 2.664a4.504 4.504 0 0 1-1.693 1.818c-.707.432-1.5.648-2.375.648-.84 0-1.584-.186-2.232-.558-.636-.384-1.122-.858-1.459-1.422v6.498h-1.638v-14.544h1.638v1.818Zm6.696 3.078c0-.744-.15-1.392-.45-1.944a3.098 3.098 0 0 0-1.225-1.26 3.314 3.314 0 0 0-1.673-.432c-.6 0-1.158.15-1.674.45-.505.288-.913.714-1.225 1.278-.3.552-.45 1.194-.45 1.926 0 .744.15 1.398.45 1.962.313.552.72.978 1.225 1.278a3.379 3.379 0 0 0 1.674.432c.612 0 1.17-.144 1.674-.432.516-.3.924-.726 1.224-1.278.3-.564.45-1.224.45-1.98Zm5.828-3.546v5.814c0 .48.102.822.306 1.026.204.192.558.288 1.062.288h1.206V136H93.25c-.912 0-1.596-.21-2.052-.63-.456-.42-.683-1.11-.683-2.07v-5.814h-1.279v-1.35h1.279v-2.484h1.637v2.484h2.575v1.35h-2.575Z" />
</svg>
